src/images_karasa_jaga_svg/cmd/sc_basicshapes.frame.svg

<svg height="16" viewBox="0 0 16 16" width="16" xmlns="http://www.w3.org/2000/svg" xmlns:xlink="http://www.w3.org/1999/xlink"><linearGradient id="a" gradientUnits="userSpaceOnUse" x1="59.971828" x2="59.971828" y1="128.45074" y2="-.450739"><stop offset="0" stop-color="#fff"/><stop offset=".46428573" stop-color="#fff"/><stop offset=".78125" stop-color="#f1f1f1"/><stop offset=".90625" stop-color="#eaeaea"/><stop offset="1" stop-color="#dfdfdf"/></linearGradient><linearGradient id="b" gradientUnits="userSpaceOnUse" x1="8.002914" x2="119.99709" y1="64" y2="64"><stop offset="0" stop-color="#7c9fcf"/><stop offset=".5" stop-color="#7c9ece"/><stop offset="1" stop-color="#7b9dcf"/></linearGradient><g stroke-width="1.157932" transform="scale(.125)"><path d="m16 8.0019531a7.9974177 7.9974177 0 0 0 -7.9980469 7.9980469v96a7.9974177 7.9974177 0 0 0 7.9980469 7.99805h96a7.9974177 7.9974177 0 0 0 7.99805-7.99805v-96a7.9974177 7.9974177 0 0 0 -7.99805-7.9980469zm37.126953 39.9980469h21.746094c2.840096 0 5.126953 2.522352 5.126953 5.65625v20.6875c0 3.133898-2.286857 5.65625-5.126953 5.65625h-21.746094c-2.840096 0-5.126953-2.522352-5.126953-5.65625v-20.6875c0-3.133898 2.286857-5.65625 5.126953-5.65625z" fill="url(#b)"/><path d="m16 16v96h96v-96zm24 24h48v48h-48z" fill="url(#a)"/></g></svg>

<?xml version="1.0" encoding="UTF-8" standalone="no"?>
<svg
   xmlns:dc="http://purl.org/dc/elements/1.1/"
   xmlns:cc="http://creativecommons.org/ns#"
   xmlns:rdf="http://www.w3.org/1999/02/22-rdf-syntax-ns#"
   xmlns:svg="http://www.w3.org/2000/svg"
   xmlns="http://www.w3.org/2000/svg"
   xmlns:xlink="http://www.w3.org/1999/xlink"
   xmlns:sodipodi="http://sodipodi.sourceforge.net/DTD/sodipodi-0.dtd"
   xmlns:inkscape="http://www.inkscape.org/namespaces/inkscape"
   height="128"
   viewBox="0 0 128 128"
   width="128"
   version="1.1"
   id="svg31"
   sodipodi:docname="sc_basicshapes.frame.svg"
   inkscape:version="0.92.3 (unknown)"
   inkscape:export-filename="/home/rizmut/Dokumen/Rizmut/Github/libreoffice-style-karasa-jaga/build/images_karasa_jaga/cmd/sc_basicshapes.frame.png"
   inkscape:export-xdpi="12"
   inkscape:export-ydpi="12">
  <metadata
     id="metadata37">
    <rdf:RDF>
      <cc:Work
         rdf:about="">
        <dc:format>image/svg+xml</dc:format>
        <dc:type
           rdf:resource="http://purl.org/dc/dcmitype/StillImage" />
        <dc:title></dc:title>
      </cc:Work>
    </rdf:RDF>
  </metadata>
  <defs
     id="defs35">
    <linearGradient
       id="linearGradient3369">
      <stop
         id="stop3372"
         offset="0"
         style="stop-color:#ffffff;stop-opacity:1;" />
      <stop
         style="stop-color:#ffffff;stop-opacity:1;"
         offset="0.46428573"
         id="stop3374" />
      <stop
         style="stop-color:#f1f1f1;stop-opacity:1;"
         offset="0.78125"
         id="stop3376" />
      <stop
         id="stop3378"
         offset="0.90625"
         style="stop-color:#eaeaea;stop-opacity:1;" />
      <stop
         id="stop3384"
         offset="1"
         style="stop-color:#dfdfdf;stop-opacity:1;" />
    </linearGradient>
    <linearGradient
       id="linearGradient7422">
      <stop
         style="stop-color:#7c9fcf;stop-opacity:1"
         offset="0"
         id="stop7424" />
      <stop
         id="stop5348"
         offset="0.5"
         style="stop-color:#7c9ece;stop-opacity:1" />
      <stop
         id="stop7426"
         offset="1"
         style="stop-color:#7b9dcf;stop-opacity:1" />
    </linearGradient>
    <linearGradient
       inkscape:collect="always"
       xlink:href="#linearGradient3369"
       id="linearGradient891"
       x1="60"
       y1="128"
       x2="60"
       y2="-5.6843419e-14"
       gradientUnits="userSpaceOnUse"
       gradientTransform="matrix(1.0070428,0,0,1.0070428,-0.45073921,-0.45073921)" />
    <linearGradient
       inkscape:collect="always"
       xlink:href="#linearGradient7422"
       id="linearGradient864"
       x1="8.3945312"
       y1="64"
       x2="119.60547"
       y2="64"
       gradientUnits="userSpaceOnUse"
       gradientTransform="matrix(1.0070428,0,0,1.0070428,-0.45073921,-0.45073921)" />
  </defs>
  <sodipodi:namedview
     pagecolor="#ffffff"
     bordercolor="#666666"
     borderopacity="1"
     objecttolerance="10"
     gridtolerance="10"
     guidetolerance="10"
     inkscape:pageopacity="0"
     inkscape:pageshadow="2"
     inkscape:window-width="1366"
     inkscape:window-height="706"
     id="namedview33"
     showgrid="true"
     inkscape:zoom="1"
     inkscape:cx="-26.084831"
     inkscape:cy="-21.928985"
     inkscape:window-x="0"
     inkscape:window-y="0"
     inkscape:window-maximized="1"
     inkscape:current-layer="svg31"
     inkscape:snap-global="false">
    <inkscape:grid
       type="xygrid"
       id="grid844"
       spacingx="8"
       spacingy="8"
       empspacing="2" />
  </sodipodi:namedview>
  <linearGradient
     id="a">
    <stop
       offset="0"
       stop-color="#f9f9fa"
       id="stop2" />
    <stop
       offset="1"
       stop-color="#f9f9fa"
       stop-opacity="0"
       id="stop4" />
  </linearGradient>
  <linearGradient
     id="b"
     gradientUnits="userSpaceOnUse"
     x1="42.276669"
     x2="-13.469376"
     xlink:href="#a"
     y1="50.867565"
     y2="104.97279" />
  <linearGradient
     id="c"
     gradientUnits="userSpaceOnUse"
     x1="-1.817377"
     x2="2.172436"
     xlink:href="#a"
     y1="55.003803"
     y2="116.784" />
  <path
     style="fill:url(#linearGradient864);fill-opacity:1;stroke-width:1.15793192"
     d="M 16 8.0019531 A 7.9974177 7.9974177 0 0 0 8.0019531 16 L 8.0019531 112 A 7.9974177 7.9974177 0 0 0 16 119.99805 L 112 119.99805 A 7.9974177 7.9974177 0 0 0 119.99805 112 L 119.99805 16 A 7.9974177 7.9974177 0 0 0 112 8.0019531 L 16 8.0019531 z M 53.126953 48 L 74.873047 48 C 77.713143 48 80 50.522352 80 53.65625 L 80 74.34375 C 80 77.477648 77.713143 80 74.873047 80 L 53.126953 80 C 50.286857 80 48 77.477648 48 74.34375 L 48 53.65625 C 48 50.522352 50.286857 48 53.126953 48 z "
     id="path851" />
  <path
     style="fill:url(#linearGradient891);fill-opacity:1;stroke-width:1.15793192"
     d="M 16 16 L 16 112 L 112 112 L 112 16 L 16 16 z M 40 40 L 88 40 L 88 88 L 40 88 L 40 40 z "
     id="path23" />
</svg>
